X: 4
T: Molly Malone
R: waltz
M: 3/4
L: 1/8
K: Gmaj
L:1/4
P: Verse
D | "G" GGG | "Em" G<B B/G/ | "Am" AAA | "D" A<c | 
w: In Du-blin's fair ci-ty where the girls are so pret-ty.
A | "G" B>AG | "D" d>cB | "Em/G" B>AG | "D" A2 ||
w: I first set my eyes on sweet Mol-ly Ma-lone.
D/D/ | "G" GGG | "Em" G<B G | "Am" AAA | "D" A<c |
w: As she wheeled her wheel-bar-row through streets broad and nar-row
A/G/ | "G" B<d"Am"c | "G" B<d"Am"c | "G" B>G"D"A | "G" G2 ||
w: cry-ing, "Co-ckles and mus-sels, a-live, a-live, oh!"
P: Chrous
D | "G" G>GG | "Em" G<B B/G/ | "Am" A>AA | "D" A<c | 
w: A-live, a-live, oh!_ A_live, a-live oh!_
B/A/ | "G" B<d"Am"c | "G" B<d"Am"c | "G"B>G"D"A | "G"G2 |]
w: Cry-ing, "Co-ckles and mus-sels, a-live, a-live, oh!"
W: She was a fishmonger
W: And sure 'twas no wonder
W: For so were her father and mother before
W: And they both wheeled their barrows
W: Through streets broad and narrow
W: Crying, "Cockles and mussels, alive, alive, oh!"
W:
W: She died of the fever
W: And no one could save her
W: And that was the end of sweet Molly Malone
W: But her ghost wheels her barrow
W: Through streets broad and narrow
W: Crying, "Cockles and mussels, alive, alive, oh!"


